**kern
*I"Singstimme Voice
*clefG2
*k[b-e-a-d-]
*M2/2
*met(c|)
4C' 4c 4en 4g
=1
4F' 4c 4f 4a-
[4cc^
4cc]
4C' 4c 4en 4g
=2
4F' 4c 4f 4a-
[4c^
4c]
4C' 4c 4en 4g
=3
4F' 4c 4f 4a-
[4cc^
4A-' 4cc]
[4d- 4f 4a-
=4
4d-'] 4f 4a- 4dd-
4c' 4f 4an 4dd-
4B-' 4f 4b- 4dd-
4A-X' 4f-X 4b- 4dd-
=5
4G'^ 4e- 4b- 4dd-
[8E-^L 8e- 8a- 8cc
8E-J_ 8e- 8g 8b-
4E-^] 4e- 4a- 4cc
[8A-L 8d- 8e- 8b-
8A-'J] 8c 8e- 8a-
=6
4D-' 4d-
8C'L 8c
8BB-'J 8B-
4BB-' 4B-
4BBn' 4Bn
=7
[2CC [2C [2En [2G [2c
4CC] 4C] 4E] 4G] 4c]
4C' 4c 4en 4g 4cc
=8
4F' 4c 4f 4a- 4cc
8b-^L [8cc
8a-J 8cc_
4a- 4cc]
4C' 4c 4en 4g
=9
4F' 4c 4f [4a-
[4c^ 4a-]
4c] 4f
[8CL [8c [8en [8g
8C'J] 8c] 8e] 8g] 8dd-
=10
4F' 4c 4f 4a- 4cc
8b-^L [8cc
8a-J 8cc_
4a- 4cc]
4C' 4c 4en 4g
=11
4F' 4c 4f [4a-
[4c^ 4a-]
4c'] 4a-
4F' 4dd-
=12
4d- 4f 4a- 4dd-
[8cL [8f [8an [8dd-
8cJ] 8f] 8a] 8dd-]
4B- 4f 4b- 4dd-
4A-X 4f-X 4b- 4dd-
=13
4G' 4e- 4b- 4dd-
[8E-^L 8e- 8a- 8cc
8E-J_ 8e- 8g 8b-
4E-] 4e- 4g 4b-
4G' 4e- 4b-
=14
4A-' 4e- 4cc
[8E-^L 8d- 8e- 8b-
8E-J_ 8c 8e- 8a-
4E-] 4c 4e- 4a- 4cc
4G' 4e- 4b- 4dd-
=15
4A-' 4e- [4a- 4cc
[8E-^L 8d- 8e- 8a-_ 8b-
8E-J_ 8c 8e- 8a-]
4E-] 4c 4e- 4a-
4G' 4e- 4dd- 4ee-
=16
[8A-L [8e- [8cc 8ff
8A-'] 8e-] 8cc] 8ee-
[8E-^ 8d- 8e- 8b- 8dd-
8E-J_ 8c 8e- 8a- 8cc
4E-] 4c 4e- 4a- 4ee-
4EE- 4B- 4e- 4g 4dd-
=17
4AA-' 4c 4e- 4a- [4cc
[8E-'^L 8B- 8d- 8cc_
8E-'J_ 8A- 8c 8cc]
4E-'] 4c 4e-
4EE-' 4E- 4G 4B- 4d-
=18
4AA-' 4E- 4A- 4c
[8E-^L 8B- 8d-
8E-J_ 8A- 8c
4E-^] 4c 4e-
4EE-' 4E- 4G 4B- 4d-
=19
4AA-' 4E- 4A- 4c
8AA-'L 8A-
8GG'J 8G
4BB-' 4B-
4AA-' 4A-
=20
4GG' 4G
8FF'L 8F
8EEn'J 8En
4FF' 4F
4DD-' 4D- 4d-
=21
4CC' 4C 4c 4d-
4C' 4c
4DD-'
[8D-L [8d-
8D-'J] 8d-]
=22
4CC' 4c 4d-
4C' 4c
4DD- 4D-
4F 4Bn 4f
=23
4CC 4C [4en
[8GL [8c 8e_
8GJ] 8c] 8e]
4BBBn^ 4BBn [4a-
[8A-L [8dn [8f 8a-]
8A-J] 8d] 8f] 8a-
=24
4CC 4C [4g
4G 4c 4en 4g]
4C 4c
[8DnL [8dn
8DJ] 8d]
=25
8E-L [8e-
8e-J_
4E- 4e-]
4FF-X
4F-X 4f-X
=26
4EE- 4e- 4f-X
4E- 4e-
4FF-X 4F-X
4A- 4dn 4a-
=27
4EE- 4E- [4g
[8B-L [8e- 8g_
8B-J] 8e-] 8g]
4DDn^ 4Dn [4cc-X
[8c-X^L [8f [8a- 8cc-]
8c-J] 8f] 8a-] 8cc-X
=28
4EE- 4E- [4b-
4B- 4e- 4g 4b-]
4E-
4e- 4g 4b-
=29
4E-
4e- 4a- 4cc-X
4E-
4e- 4an 4ccn
=30
4G^ 4e- 4b- 4dd-
[8E-^L 8e- 8a- 8cc
8E-J_ 8e- 8g 8b-
4E-] 4e- 4g 4b-
4G 4e- 4bn
=31
4A-^ 4e- [4cc
[8E-^L 8d- 8e- 8b- 8cc]
8E-J_ 8c 8e- 8a-
8E-L_ [8c [8e- [8a-
8E-] 8c] 8e-] 8a-] 8cc
[8A- [8e- 8cc
8A-J] 8e-] 8ee-
=32
4G^ 4e- 4b- 4dd- 4ee-
[8E-^L 8e- 8a- 8cc
8E-J_ 8e- 8g 8b-
4E-] 4e- 4g 4b-
4G 4e- 4bn
=33
[8A-L 8f [8cc
8A-] 8e- 8cc_
[8E-^ 8d- 8e- 8b- 8cc_
8E-J_ 8c 8e- 8a- 8cc]
4E-] 4c 4e- 4a-
8CL [8e- [8ee-
8E-J 8e-] 8ee-]
=34
4G-X^ 4c 4e- 4g-X [4an 4ee-
8F'L 8c 8e- 8g-X 8a]
8E-'J 8c 8e- 8g-X 8a
4E- 4c 4e- 4g-X [4an
8D-'L [8c [8e- [8g-X 8a_
8C'J 8c] 8e-] 8g-] 8a]
=35
4D-' 4d- 4g-X [4b-
[8DD-^L 8d- 8g-X 8b-]
8DD-J_ 8d- 8a- 8cc-X
4DD-] 4d- 4g-X 4b-
4D-' 4d- 4g-X 4b-
=36
4D-' 4f 4a- 4cc-X
[8DD-^L 8f 8a- 8cc-
8DD-J_ 8f 8b- 8dd-
4DD-] 4f 4cc-X 4ee-
[8D-L 8f 8b- 8dd-
8D-'J] 8f 8a- 8cc-X
=37
4D-' 4d- 4g-X [4b-
[8DD-^L 8d- 8g-X 8b-_
8DD-J_ 8d- 8f 8b-_
4DD-] 4d- 4g-X 4b-]
4D-' 4Bn 4f 4a- 4ff
=38
[8CL [8c [8f [8a- 8ff
8C] 8c] 8f] 8a-] 8cc
8BB- 8d- 8f 8a- 8dd-
8BB-J 8d- 8f 8b- 8ff
4C 4c 4f 4a-
4C 4c 4en 4g
=39
4AAn 4c 4e- 4g-X [4cc
[8AnL 8e- 8g-X 8cc_
8AJ_ 8e- 8g-X 8cc_
4A] 4g-X 4cc] 4ee-
4An 4e- 4g-X 4cc
=40
4B-^ 4e- 4gn 4dd-
[8E-^L 8e- 8a- 8cc
8E-J_ 8e- 8g 8b-
4E-] 4e- 4g 4b-
4G 4e- 4bn
=41
4A- 4e- [4cc
[8E-^L 8d- 8e- 8b- 8cc]
8E-J_ 8c 8e- 8a-
8E-L_ [8c [8e- [8a-
8E-] 8c] 8e-] 8a-] 8cc
[8A- [8e- 8cc
8A-J] 8e-] 8ee-
=42
4G^ 4e- 4b- 4dd- 4ee-
[8E-^L 8e- 8a- 8cc
8E-J_ 8e- 8g 8b-
4E-] 4e- 4g 4b-
4G 4e- 4bn
=43
[8A-L 8f [8cc
8A-] 8e- 8cc_
[8E-^ 8d- 8e- 8b- 8cc_
8E-J_ 8c 8e- 8a- 8cc]
4E-] 4c 4e- 4a-
8CL [8e- [8ee-
8E-J 8e-] 8ee-]
=44
4G-X 4c 4e- 4g-X [4an 4ee-
8F'L 8c 8e- 8g-X 8a]
8E-'J 8c 8e- 8g-X 8a
4E- 4c 4e- 4g-X 4an
8D-'L [8c [8e- [8g-X [8a
8C'J 8c] 8e-] 8g-] 8a]
=45
4D-' 4d- 4g-X [4b-
[8DD-^L 8d- 8g-X 8b-]
8DD-J_ 8d- 8a- 8cc-X
4DD-] 4d- 4g-X 4b-
4D-' 4d- 4g-X 4b-
=46
4D-' 4f 4a- 4cc-X
[8DD-^L 8f 8a- 8cc-
8DD-J_ 8f 8b- 8dd-
4DD-] 4f 4cc-X 4ee-
[8D-L 8f 8b- 8dd-
8D-'J] 8f 8a- 8cc-X
=47
4D-' 4d- 4g-X [4b-
[8DD-^L 8d- 8g-X 8b-_
8DD-J_ 8d- 8f 8b-_
4DD-] 4d- 4g-X 4b-]
4D-' 4Bn 4f 4a- 4ff
=48
4C 4c 4f 4a- 4ff
8BB-L 8d- 8f 8a- 8ff
8BB-J 8d- 8g 8b- 8gg
4C 4c 4en 4g [4een
[8CCL [8C [8c [8en [8g 8ee]
8CCJ] 8C] 8c] 8e] 8g] 8ee
=49
4FF 4F 4c 4f 4a- [4ff
[4cc^ 4ff]
4cc]
4CC' 4C 4cn 4en 4g
=50
4FF' 4F 4c 4f 4a-
[4c^
4c]
4C' 4c 4en 4g
=51
4F' 4c 4f 4a-
[4cc^
4A- 4cc]
[4d-^ 4f 4a-
=52
4d-'] 4f 4a- 4dd-
4c' 4f 4an 4dd-
4B-' 4f 4b- 4dd-
4A-X' 4f-X 4b- 4dd-
=53
4G'^ 4e- 4b- 4dd-
[8E-'^L 8e- 8a- 8cc
8E-'J_ 8e- 8g 8b-
4E-^] 4e- 4a- 4cc
[8A-'L 8d- 8e- 8b-
8A-'J] 8c 8e- 8a-
=54
4D-^ 4d-
8C'L 8c
8BB-'J 8B-
4C' 4c
4CC' 4C 4G 4c 4en
=55
2FF 2C 2A- 2c 2f
2r
==
*-
